assets/ai/ai-inpn-square.svg

<svg xmlns="http://www.w3.org/2000/svg" width="100%" height="100%" viewBox="-75.52 -43.52 599.04 599.04"><path d="M 48 32 C 21.5 32 0 53.5 0 80 L 0 432 C 0 458.5 21.5 480 48 480 L 400 480 C 426.5 480 448 458.5 448 432 L 448 80 C 448 53.5 426.5 32 400 32 L 48 32 z M 138.375 96.001953 C 144.52757 95.965698 150.64846 96.482533 156.55664 98.048828 C 167.19859 100.88986 177.89994 103.7484 186.45703 111.14258 C 199.41172 121.00735 212.12395 132.36424 219.3457 147.27344 L 223.79688 154.40625 L 228.11328 147.1875 C 244.09314 116.19258 277.99552 96.880608 312.53711 96.205078 C 329.4534 97.927808 346.70112 103.09155 360.51367 113.55859 C 377.31027 125.71249 388.29223 144.1559 393.2168 164.11133 C 396.34017 175.35812 397.05555 187.30076 395.08984 198.83789 C 390.4615 231.50169 371.43436 259.39522 350.61523 284.0332 C 328.82259 309.50916 305.15785 333.30844 281.49805 357.05664 C 261.89774 376.39455 242.23364 396.59313 223.36719 416 C 219.12012 409.92603 212.99669 405.52952 208.31445 399.84766 C 192.03895 382.70604 175.24985 366.00324 158.5957 349.20312 C 123.8525 313.28532 85.861428 279.02179 62.992188 233.78516 C 50.980358 208.29299 47.369225 177.58408 58.546875 151.17773 C 63.123115 136.67343 73.349781 124.63188 84.988281 115.14453 C 94.453591 105.50535 107.08196 100.34752 120.01172 97.271484 C 126.03918 96.627269 132.22243 96.038208 138.375 96.001953 z M 305.4668 165.31055 C 303.46913 165.35455 301.36103 166.03002 299.12109 167.56055 C 270.66809 194.96927 243.32791 223.60519 214.85547 251.03516 C 208.16591 243.36922 200.49375 236.54061 193.41992 229.19531 C 186.31495 222.91375 178.06116 208.75622 167.56055 217.00977 C 161.19058 225.16266 146.28993 231.51135 151.02734 243.79102 C 165.2516 260.02623 181.39047 274.66103 196.45703 290.19336 C 203.5576 296.45359 211.22658 309.68422 221.97461 302.14453 C 253.64025 270.7974 285.02303 239.14584 316.57812 207.67969 C 323.03323 200.80893 336.25064 191.97395 327.16992 182.10547 C 320.72377 176.78557 314.12335 165.11986 305.4668 165.31055 z"/></svg>

<svg xmlns="http://www.w3.org/2000/svg" width="100%" height="100%" viewBox="-75.52 -43.52 599.04 599.04"><path d="M48 32C21.5 32 0 53.5 0 80v352c0 26.5 21.5 48 48 48h352c26.5 0 48-21.5 48-48V80c0-26.5-21.5-48-48-48H48zm90.375 64.002c6.153-.036 12.273.48 18.182 2.047 10.642 2.84 21.343 5.7 29.9 13.094 12.955 9.864 25.667 21.221 32.889 36.13l4.45 7.133 4.317-7.219c15.98-30.994 49.883-50.306 84.424-50.982 16.916 1.723 34.164 6.887 47.977 17.354 16.796 12.153 27.778 30.597 32.703 50.552 3.123 11.247 3.839 23.19 1.873 34.727-4.628 32.664-23.656 60.557-44.475 85.195-21.792 25.476-45.457 49.275-69.117 73.024-19.6 19.338-39.264 39.536-58.13 58.943-4.248-6.074-10.371-10.47-15.054-16.152-16.275-17.142-33.064-33.845-49.718-50.645-34.743-35.918-72.735-70.181-95.604-115.418-12.012-25.492-15.623-56.2-4.445-82.607 4.576-14.505 14.803-26.546 26.441-36.033 9.466-9.64 22.094-14.797 35.024-17.874 6.027-.644 12.21-1.233 18.363-1.269zm167.092 69.309c-1.998.044-4.106.719-6.346 2.25-28.453 27.408-55.793 56.044-84.266 83.474-6.69-7.666-14.361-14.494-21.435-21.84-7.105-6.281-15.359-20.439-25.86-12.185-6.37 8.153-21.27 14.501-16.533 26.781 14.225 16.235 30.363 30.87 45.43 46.402 7.1 6.26 14.77 19.491 25.518 11.952 31.665-31.348 63.048-63 94.603-94.465 6.455-6.871 19.673-15.706 10.592-25.575-6.446-5.32-13.047-16.985-21.703-16.794z"/></svg>
